X:1
T:Golden Shore
T:Golden Shore
T:James Calvin Bushey
T:Lewis Banck, 1880
T:Public Domain Courtesy of the Cyber Hymnal™
C:James Calvin Bushey
Z:Public Domain
Z:Courtesy of the Cyber Hymnal™
%%score ( 1 2 ) ( 3 4 )
L:1/8
Q:1/4=100
M:4/4
K:C
V:1 treble 
V:2 treble 
V:3 bass 
V:4 bass 
V:1
 [CE]>[DF] | [EG][EG][EG][EG] [FA]2 [EG]2 | [Ec]6 [CE]>[DF] | [EG]2 [EG]2 [Ge]2 [Gc]2 | %4
w: 1.~What a|hap- py meet- ing there will|be, When the|loved ones gone be-|
w: 2.~Soon our|feet will press the heav’n- ly|strand, When this|earth- ly life is|
w: 3.~Hark! the|voice of greet- ing in that|clime, Hark! they|sing in heav’n- ly|
w: 4.~With the|shin- ing hosts the loved ones|stand, Where sad|part- ing comes no|
 [Gd]6 [Gd]>[Gd] | [Ge][Ge][Ge][Ge] [Fd]2 [Ec]2 | [FA]6 [FA]2 | G3 (z G) [FA]2 [FB]2 | [Ec]6 || %9
w: fore, Shall the|por- tals crowd their friend to|see, Up-|on * the gold-||
w: o’er, Ve- ry|soon will greet the heav’n- ly|band, Up-|on * the gold-||
w: lore, The an-|gel- ic hosts their prais- es|chime, Up-|on * the gold-||
w: more, Wait- ing|there to clasp their loved one’s|hand, Up-|on * the golde-||
"^Refrain" [CE]>[DF] | G4 e4 | c4 A2 [FA]2 | [EG]2 [CE]2 [Ec]2 [CE]2 | [B,D]6 [CE]>[DF] | G4 e4 | %15
w: en shore.||||||
w: en shore.|What a|meet- ing and|a greet- ing, What|a meet- ing|and a|
w: en shore.||||||
w: n shore.||||||
 c4 A4 | [FG]3 [FG] A2 [FB]2 | [Ec]6 |] %18
w: |||
w: greet- ing,|Up- on the gold-|en|
w: |||
w: |||
V:2
 x2 | x8 | x8 | x8 | x8 | x8 | x8 | F2 F2 x5 | x6 || x2 | EEEE GGG^G | AAAA FF x2 | x8 | x8 | %14
 EEEE GGG^G | AAAA FFFF | x8 | x6 |] %18
V:3
 [C,C]>[C,C] | [C,C][C,C][C,C][C,C] [C,C]2 [C,C]2 | [C,G,]6 [C,G,]>[C,G,] | %3
 [C,C]2 [C,C]2 [C,C]2 [E,C]2 | [G,B,]6 [G,B,]>[G,B,] | CCCC [G,B,]2 [A,C]2 | [F,C]6 [F,C]2 | %7
 [G,B,]3 [G,B,] [G,C]2 [G,D]2 x | [C,C]6 || [C,C]>[C,C] | %10
 [C,C][C,C][C,C][C,C] [C,C][C,C][C,C][E,C] | [F,C][F,C][F,C][F,C] [F,C][F,C] [F,C]2 | %12
 [C,C]2 [C,G,]2 [C,G,]2 [C,G,]2 | G,6 [E,G,]>[D,G,] | [C,C][C,C][C,C][C,C] [C,C][C,C][C,C][E,C] | %15
 [F,E][F,E][F,E][F,E] [F,E][F,E][F,E][F,E] | [G,B,]3 [G,B,] [G,C]2 [G,D]2 | [C,C]6 |] %18
V:4
 x2 | x8 | x8 | x8 | x8 | CCCC x4 | x8 | x9 | x6 || x2 | x8 | x8 | x8 | (G,2 G,G,G,F,) x2 | x8 | %15
 x8 | x8 | x6 |] %18

